src/assets/images/skills/sql.svg

<?xml version="1.0" encoding="UTF-8" standalone="no"?>
<svg width="64px" height="64px" viewBox="0 0 64 64" version="1.1" xmlns="http://www.w3.org/2000/svg" xmlns:xlink="http://www.w3.org/1999/xlink">
    <defs></defs>
    <g id="Languages" stroke="none" stroke-width="1" fill="none" fill-rule="evenodd">
        <g id="icons/skills/id-355">
            <path d="M33.7260681,2.99580851 L56.2739319,16.0041915 C57.227213,16.5541613 58,17.8978404 58,18.991617 L58,45.008383 C58,46.1083227 57.2218716,47.4489202 56.2739319,47.9958085 L33.7260681,61.0041915 C32.772787,61.5541613 31.2218716,61.5510798 30.2739319,61.0041915 L7.72606809,47.9958085 C6.77278701,47.4458387 6,46.1021596 6,45.008383 L6,18.991617 C6,17.8916773 6.77812836,16.5510798 7.72606809,16.0041915 L30.2739319,2.99580851 C31.227213,2.44583866 32.7781284,2.44892021 33.7260681,2.99580851 Z" id="Polygon-1" fill="#378EE6"></path>
            <path d="M45,30 C45,32.309 38.928,34 32,34 C25.072,34 19,32.309 19,30 C19,27.691 25.072,26 32,26 C38.928,26 45,27.691 45,30 L45,30 Z" id="Stroke-5366" opacity="0.800000012" fill="#85CCFF"></path>
            <path d="M45,25 C45,27.309 38.928,29 32,29 C25.072,29 19,27.309 19,25 C19,22.691 25.072,21 32,21 C38.928,21 45,22.691 45,25 L45,25 Z" id="Stroke-5366" opacity="0.800000012" fill="#F2FAFF"></path>
            <path d="M45,20 C45,22.309 38.928,24 32,24 C25.072,24 19,22.309 19,20 C19,17.691 25.072,16 32,16 C38.928,16 45,17.691 45,20 L45,20 Z" id="Stroke-5366" opacity="0.959999979" fill="#FFFFFF"></path>
            <path d="M26.442,40.328 C26.2819992,40.0959988 26.0680013,39.9260005 25.8,39.818 C25.5319987,39.7099995 25.2500015,39.656 24.954,39.656 C24.7779991,39.656 24.6080008,39.6759998 24.444,39.716 C24.2799992,39.7560002 24.1320007,39.8199996 24,39.908 C23.8679993,39.9960004 23.7620004,40.1099993 23.682,40.25 C23.6019996,40.3900007 23.562,40.555999 23.562,40.748 C23.562,41.0360014 23.661999,41.2559992 23.862,41.408 C24.062001,41.5600008 24.3099985,41.6919994 24.606,41.804 C24.9020015,41.9160006 25.2259982,42.0239995 25.578,42.128 C25.9300018,42.2320005 26.2539985,42.3759991 26.55,42.56 C26.8460015,42.7440009 27.093999,42.9879985 27.294,43.292 C27.494001,43.5960015 27.594,43.9999975 27.594,44.504 C27.594,44.9600023 27.5100008,45.3579983 27.342,45.698 C27.1739992,46.0380017 26.9480014,46.3199989 26.664,46.544 C26.3799986,46.7680011 26.0500019,46.9359994 25.674,47.048 C25.2979981,47.1600006 24.9020021,47.216 24.486,47.216 C23.9579974,47.216 23.4500024,47.1280009 22.962,46.952 C22.4739976,46.7759991 22.0540018,46.4800021 21.702,46.064 L22.842,44.96 C23.0260009,45.2400014 23.2679985,45.4579992 23.568,45.614 C23.8680015,45.7700008 24.1859983,45.848 24.522,45.848 C24.6980009,45.848 24.8739991,45.8240002 25.05,45.776 C25.2260009,45.7279998 25.3859993,45.6560005 25.53,45.56 C25.6740007,45.4639995 25.7899996,45.3420007 25.878,45.194 C25.9660004,45.0459993 26.01,44.876001 26.01,44.684 C26.01,44.3719984 25.910001,44.1320008 25.71,43.964 C25.509999,43.7959992 25.2620015,43.6540006 24.966,43.538 C24.6699985,43.4219994 24.3460018,43.3120005 23.994,43.208 C23.6419982,43.1039995 23.3180015,42.9620009 23.022,42.782 C22.7259985,42.6019991 22.478001,42.3620015 22.278,42.062 C22.077999,41.7619985 21.978,41.3600025 21.978,40.856 C21.978,40.4159978 22.0679991,40.0360016 22.248,39.716 C22.4280009,39.3959984 22.6639985,39.1300011 22.956,38.918 C23.2480015,38.7059989 23.5819981,38.5480005 23.958,38.444 C24.3340019,38.3399995 24.717998,38.288 25.11,38.288 C25.5580022,38.288 25.9919979,38.3559993 26.412,38.492 C26.8320021,38.6280007 27.2099983,38.8519984 27.546,39.164 L26.442,40.328 Z M38.286,47 L33.342,47 C32.6779967,47 32.0640028,46.898001 31.5,46.694 C30.9359972,46.489999 30.4480021,46.1980019 30.036,45.818 C29.6239979,45.4379981 29.3000012,44.9740027 29.064,44.426 C28.8279988,43.8779973 28.71,43.2600034 28.71,42.572 C28.71,41.9479969 28.8279988,41.3740026 29.064,40.85 C29.3000012,40.3259974 29.621998,39.8740019 30.03,39.494 C30.438002,39.1139981 30.9119973,38.8180011 31.452,38.606 C31.9920027,38.3939989 32.565997,38.288 33.174,38.288 C33.782003,38.288 34.3559973,38.3939989 34.896,38.606 C35.4360027,38.8180011 35.909998,39.1139981 36.318,39.494 C36.726002,39.8740019 37.0479988,40.3259974 37.284,40.85 C37.5200012,41.3740026 37.638,41.9479969 37.638,42.572 C37.638,43.0200022 37.5840005,43.4139983 37.476,43.754 C37.3679995,44.0940017 37.2260009,44.3939987 37.05,44.654 C36.8739991,44.9140013 36.6800011,45.1319991 36.468,45.308 C36.2559989,45.4840009 36.050001,45.6319994 35.85,45.752 L35.85,45.776 L38.286,45.776 L38.286,47 Z M33.138,39.656 C32.729998,39.656 32.3520017,39.7299993 32.004,39.878 C31.6559983,40.0260007 31.3560013,40.2319987 31.104,40.496 C30.8519987,40.7600013 30.6540007,41.0719982 30.51,41.432 C30.3659993,41.7920018 30.294,42.1839979 30.294,42.608 C30.294,43.0400022 30.3659993,43.4419981 30.51,43.814 C30.6540007,44.1860019 30.8539987,44.5059987 31.11,44.774 C31.3660013,45.0420013 31.6679983,45.2519992 32.016,45.404 C32.3640017,45.5560008 32.7459979,45.632 33.162,45.632 C33.5780021,45.632 33.9639982,45.5560008 34.32,45.404 C34.6760018,45.2519992 34.9819987,45.0420013 35.238,44.774 C35.4940013,44.5059987 35.6939993,44.1860019 35.838,43.814 C35.9820007,43.4419981 36.054,43.0400022 36.054,42.608 C36.054,42.1839979 35.9820007,41.7920018 35.838,41.432 C35.6939993,41.0719982 35.4940013,40.7600013 35.238,40.496 C34.9819987,40.2319987 34.6760018,40.0260007 34.32,39.878 C33.9639982,39.7299993 33.5700022,39.656 33.138,39.656 L33.138,39.656 Z M39.39,38.504 L40.902,38.504 L40.902,45.632 L44.514,45.632 L44.514,47 L39.39,47 L39.39,38.504 Z" id="SQL" fill="#F7FAFE"></path>
        </g>
    </g>
</svg>

<svg xmlns="http://www.w3.org/2000/svg" xmlns:xlink="http://www.w3.org/1999/xlink" width="64" height="64" xmlns:v="https://vecta.io/nano"><g fill-rule="evenodd"><path d="M33.726 2.996l22.548 13.008c.953.55 1.726 1.894 1.726 2.987v26.017c0 1.1-.778 2.44-1.726 2.987L33.726 61.004c-.953.55-2.504.547-3.452 0L7.726 47.996C6.773 47.446 6 46.102 6 45.008V18.992c0-1.1.778-2.44 1.726-2.987L30.274 2.996c.953-.55 2.504-.547 3.452 0z" fill="#378ee6"/><use xlink:href="#B" opacity=".8" fill="#85ccff"/><use xlink:href="#B" y="-5" opacity=".8" fill="#f2faff"/><use xlink:href="#B" y="-10" opacity=".96" fill="#fff"/><path d="M26.442 40.328c-.16-.232-.374-.402-.642-.5a2.24 2.24 0 0 0-.846-.162c-.176 0-.346.02-.5.06s-.312.104-.444.192-.238.202-.318.342-.12.306-.12.498c0 .288.1.508.3.66a2.95 2.95 0 0 0 .744.396l.972.324a3.95 3.95 0 0 1 .972.432c.296.184.544.428.744.732s.3.708.3 1.212c0 .456-.084.854-.252 1.194s-.394.622-.678.846a2.93 2.93 0 0 1-.99.504 4.14 4.14 0 0 1-1.188.168c-.528 0-1.036-.088-1.524-.264s-.908-.472-1.26-.888l1.14-1.104c.184.28.426.498.726.654a2.04 2.04 0 0 0 .954.234 2 2 0 0 0 .528-.072c.176-.048.336-.12.48-.216s.26-.218.348-.366a.98.98 0 0 0 .132-.51c0-.312-.1-.552-.3-.72a2.65 2.65 0 0 0-.744-.426l-.972-.33c-.352-.104-.676-.246-.972-.426s-.544-.42-.744-.72-.3-.702-.3-1.206c0-.44.1-.82.27-1.14a2.47 2.47 0 0 1 .708-.798 3.09 3.09 0 0 1 1.002-.474 4.3 4.3 0 0 1 1.152-.156 4.2 4.2 0 0 1 1.302.204c.42.136.798.36 1.134.672l-1.104 1.164zM38.286 47h-4.944c-.664 0-1.278-.102-1.842-.306s-1.052-.496-1.464-.876a4.04 4.04 0 0 1-.972-1.392c-.236-.548-.354-1.166-.354-1.854 0-.624.118-1.198.354-1.722s.558-.976.966-1.356a4.45 4.45 0 0 1 1.422-.888 4.67 4.67 0 0 1 1.722-.318 4.67 4.67 0 0 1 1.722.318 4.45 4.45 0 0 1 1.422.888c.408.38.73.832.966 1.356s.354 1.098.354 1.722c0 .448-.054.842-.162 1.182s-.25.64-.426.9a3.1 3.1 0 0 1-.582.654c-.212.176-.418.324-.618.444v.024h2.436V47zm-5.148-7.344c-.408 0-.786.074-1.134.222s-.648.354-.9.618-.45.576-.594.936-.216.752-.216 1.176c0 .432.072.834.216 1.206s.344.692.6.96.558.478.906.63.73.228 1.146.228.802-.076 1.158-.228.662-.362.918-.63.456-.588.6-.96.216-.774.216-1.206c0-.424-.072-.816-.216-1.176s-.344-.672-.6-.936-.562-.47-.918-.618a3.05 3.05 0 0 0-1.182-.222h0zm6.252-1.152h1.512v7.128h3.612V47H39.4v-8.496z" fill="#f7fafe"/></g><defs ><path id="B" d="M45 30c0 2.31-6.072 4-13 4s-13-1.69-13-4 6.072-4 13-4 13 1.69 13 4h0z"/></defs></svg>
